X: 196
T:The Matelot
% Nottingham Music Database
S:Trad, arr Phil Rowe
M:6/8
K:D
A|"D"FED FED|FGA A2A|"G"Bcd "D"AGF|"Em"GEE "A7"E2A|
"D"FED FED|"D"FGA A2A|"G"Bcd "A"edc|"D"d3 -d2::
A|"D"f2f fed|"A"e2e e2A|"G"Bcd edc|"Em"B3 "A"A2A|
"D"f2f fed|"A"e2e e2A|"G"Bcd edc|"D"d3 -d2:|<end>
<start>
